packages/assets/static/images/icons/wheelchair.svg

<svg width="24" height="24" viewBox="0 0 24 24" xmlns="http://www.w3.org/2000/svg">
<path d="M16.6717 7.22573C17.273 7.22573 17.8608 7.05196 18.3607 6.72638C18.8607 6.40081 19.2504 5.93806 19.4805 5.39665C19.7106 4.85523 19.7708 4.25948 19.6535 3.68472C19.5362 3.10996 19.2466 2.58202 18.8214 2.16764C18.3963 1.75326 17.8545 1.47107 17.2648 1.35674C16.675 1.24241 16.0637 1.30109 15.5082 1.52535C14.9527 1.74961 14.4778 2.12938 14.1438 2.61663C13.8097 3.10389 13.6314 3.67675 13.6314 4.26277C13.6314 5.04859 13.9517 5.80224 14.5219 6.3579C15.092 6.91356 15.8653 7.22573 16.6717 7.22573ZM16.6717 2.78129C16.9723 2.78129 17.2662 2.86817 17.5162 3.03096C17.7662 3.19375 17.961 3.42512 18.0761 3.69583C18.1911 3.96654 18.2212 4.26441 18.1626 4.55179C18.1039 4.83917 17.9591 5.10315 17.7465 5.31033C17.534 5.51752 17.2631 5.65862 16.9682 5.71578C16.6733 5.77295 16.3677 5.74361 16.0899 5.63148C15.8122 5.51935 15.5747 5.32946 15.4077 5.08584C15.2407 4.84221 15.1515 4.55578 15.1515 4.26277C15.1515 3.86986 15.3117 3.49303 15.5968 3.2152C15.8818 2.93737 16.2685 2.78129 16.6717 2.78129ZM15.9116 15.3739C15.9116 16.5459 15.555 17.6916 14.8868 18.6661C14.2187 19.6407 13.269 20.4002 12.158 20.8487C11.0469 21.2972 9.82432 21.4146 8.64481 21.1859C7.46531 20.9573 6.38186 20.3929 5.53148 19.5641C4.68111 18.7354 4.10199 17.6795 3.86738 16.53C3.63276 15.3805 3.75317 14.1889 4.21339 13.1061C4.67361 12.0233 5.45297 11.0978 6.45291 10.4467C7.45284 9.7955 8.62845 9.44795 9.83106 9.44795C10.0326 9.44795 10.226 9.526 10.3685 9.66491C10.5111 9.80383 10.5911 9.99224 10.5911 10.1887C10.5911 10.3851 10.5111 10.5736 10.3685 10.7125C10.226 10.8514 10.0326 10.9294 9.83106 10.9294C8.9291 10.9294 8.0474 11.1901 7.29744 11.6785C6.54749 12.1668 5.96298 12.8609 5.61781 13.6731C5.27264 14.4852 5.18233 15.3788 5.3583 16.2409C5.53426 17.1031 5.9686 17.895 6.60638 18.5166C7.24416 19.1381 8.05675 19.5614 8.94137 19.7329C9.826 19.9044 10.7429 19.8164 11.5762 19.48C12.4096 19.1436 13.1218 18.574 13.6229 17.8431C14.124 17.1122 14.3915 16.2529 14.3915 15.3739C14.3915 15.1774 14.4715 14.989 14.6141 14.8501C14.7566 14.7112 14.9499 14.6331 15.1515 14.6331C15.3531 14.6331 15.5464 14.7112 15.689 14.8501C15.8315 14.989 15.9116 15.1774 15.9116 15.3739ZM19.5399 11.9415C19.6111 12.0263 19.6621 12.1254 19.6892 12.2317C19.7163 12.338 19.7189 12.4489 19.6967 12.5563L18.1766 19.9637C18.1421 20.1315 18.0491 20.2825 17.9133 20.3911C17.7775 20.4996 17.6073 20.559 17.4317 20.5591C17.3813 20.5591 17.331 20.5542 17.2816 20.5442C17.0841 20.5056 16.9104 20.3921 16.7987 20.2287C16.687 20.0654 16.6465 19.8655 16.6859 19.673L18.0246 13.1517H12.1113C11.9777 13.1518 11.8465 13.1178 11.7308 13.0528C11.6151 12.9879 11.519 12.8944 11.4522 12.7818C11.3853 12.6691 11.3501 12.5413 11.3501 12.4112C11.35 12.2811 11.3851 12.1532 11.4519 12.0405L13.3578 8.80906C12.0327 8.13452 10.5331 7.85532 9.04618 8.00633C7.55928 8.15733 6.15096 8.73184 4.99705 9.65814C4.92171 9.72829 4.83237 9.7826 4.73458 9.81769C4.6368 9.85277 4.53265 9.86789 4.42862 9.8621C4.32459 9.8563 4.22289 9.82972 4.12984 9.78401C4.03679 9.7383 3.95438 9.67442 3.88773 9.59636C3.82108 9.5183 3.77161 9.42771 3.7424 9.33023C3.71318 9.23275 3.70485 9.13046 3.71791 9.02971C3.73097 8.92896 3.76515 8.8319 3.81833 8.74456C3.8715 8.65723 3.94253 8.58148 4.02701 8.52203C5.52483 7.31746 7.37804 6.61025 9.31688 6.50333C11.2557 6.39641 13.179 6.89537 14.8066 7.92758C14.9694 8.03091 15.0854 8.19105 15.1308 8.37513C15.1763 8.55921 15.1476 8.75325 15.0508 8.9174L13.4243 11.6702H18.9518C19.0644 11.6702 19.1755 11.6945 19.2772 11.7414C19.3789 11.7883 19.4686 11.8566 19.5399 11.9415Z"/>
</svg>

<svg viewBox="0 0 24 24" xmlns="http://www.w3.org/2000/svg" aria-hidden="true" fill="currentColor"><path d="M16.672 7.226c.601 0 1.189-.174 1.689-.5.5-.325.89-.788 1.12-1.33.23-.54.29-1.137.172-1.711a2.94 2.94 0 0 0-.832-1.517 3.07 3.07 0 0 0-1.556-.811 3.1 3.1 0 0 0-1.757.168 3.03 3.03 0 0 0-1.364 1.092 2.9 2.9 0 0 0-.513 1.646c0 .786.32 1.54.89 2.095a3.08 3.08 0 0 0 2.15.868m0-4.445c.3 0 .594.087.844.25s.445.394.56.665a1.45 1.45 0 0 1-.33 1.614 1.53 1.53 0 0 1-.778.406 1.55 1.55 0 0 1-.878-.085 1.5 1.5 0 0 1-.682-.545 1.455 1.455 0 0 1 .189-1.87 1.54 1.54 0 0 1 1.075-.435m-.76 12.593a5.8 5.8 0 0 1-1.025 3.292 6.05 6.05 0 0 1-2.729 2.183 6.23 6.23 0 0 1-3.513.337 6.13 6.13 0 0 1-3.114-1.622 5.9 5.9 0 0 1-1.664-3.034 5.8 5.8 0 0 1 .346-3.424 5.96 5.96 0 0 1 2.24-2.66c1-.65 2.175-.998 3.378-.998a.77.77 0 0 1 .537.217.73.73 0 0 1 0 1.048.77.77 0 0 1-.537.216c-.902 0-1.784.261-2.534.75a4.47 4.47 0 0 0-1.68 1.994 4.34 4.34 0 0 0-.259 2.568 4.4 4.4 0 0 0 1.248 2.276 4.6 4.6 0 0 0 2.335 1.216 4.67 4.67 0 0 0 2.635-.253 4.54 4.54 0 0 0 2.047-1.637c.501-.73.769-1.59.769-2.47 0-.196.08-.384.222-.523a.77.77 0 0 1 1.075 0 .73.73 0 0 1 .223.524m3.628-3.433a.73.73 0 0 1 .157.615l-1.52 7.408a.74.74 0 0 1-.264.427.773.773 0 0 1-1.114-.162.73.73 0 0 1-.113-.556l1.339-6.521H12.11a.8.8 0 0 1-.38-.1.75.75 0 0 1-.279-.27.73.73 0 0 1 0-.742l1.906-3.23a7.8 7.8 0 0 0-4.312-.804 7.7 7.7 0 0 0-4.049 1.652.76.76 0 0 1-.568.204.78.78 0 0 1-.541-.266.74.74 0 0 1-.17-.566.73.73 0 0 1 .309-.508 9.26 9.26 0 0 1 5.29-2.019 9.3 9.3 0 0 1 5.49 1.425.74.74 0 0 1 .324.447.72.72 0 0 1-.08.542l-1.627 2.753h5.528a.78.78 0 0 1 .588.271"/></svg>
